X: 42603
T: Where's The Wife?
R: hornpipe
M: 4/4
K: Amajor
AB|:c4 cBAB|cAFA E4|ABcA B2AB|cBBA BEAB|
c4 cBAB|cAFA E4|ABcA B2AB|cAAB AEAB:|
|:ceec e2ce|faag a2af|e2ef ecAB|cBBA B2AB|
ceec e2ce|faag a2af|e2ef ecAB|ceBc AEAB:|

